img/brand_visual_balustrade2.svg

<svg width="133" height="30" viewBox="0 0 133 30" fill="none" xmlns="http://www.w3.org/2000/svg">
<g clip-path="url(#clip0)">
<path d="M132.145 7.40407L1.8721 7.1686C1.64744 7.1686 1.43199 7.07672 1.27313 6.91317C1.11427 6.74962 1.02502 6.5278 1.02502 6.29651L1.08432 0.872093C1.08432 0.6408 1.17357 0.418979 1.33242 0.25543C1.49128 0.091881 1.70674 0 1.9314 0L132.085 2.68605C132.31 2.68605 132.525 2.77793 132.684 2.94148C132.843 3.10503 132.932 3.32685 132.932 3.55814L133.017 6.53198C133.017 6.64874 132.994 6.76432 132.95 6.87187C132.906 6.97942 132.841 7.07674 132.76 7.15808C132.679 7.23941 132.582 7.30309 132.476 7.34535C132.371 7.3876 132.258 7.40757 132.145 7.40407Z" fill="#FFF5D9"/>
<path d="M1.19434 29.5291L131.441 27.2006C131.666 27.2006 131.881 27.1087 132.04 26.9452C132.199 26.7816 132.288 26.5598 132.288 26.3285L132.144 20.9303C132.144 20.699 132.055 20.4771 131.896 20.3136C131.737 20.15 131.522 20.0582 131.297 20.0582L1.1774 24.8024C0.952743 24.8024 0.737285 24.8942 0.578426 25.0578C0.419568 25.2213 0.330322 25.4432 0.330322 25.6744V28.657C0.3303 28.773 0.352759 28.8879 0.396384 28.9948C0.440009 29.1018 0.503924 29.1987 0.584386 29.2799C0.664848 29.3611 0.760239 29.425 0.864975 29.4678C0.969711 29.5106 1.08169 29.5314 1.19434 29.5291Z" fill="#FFF5D9"/>
<path d="M10.9358 26.9564H5.66699L6.81902 2.1192H10.9358V26.9564Z" fill="#FFF5D9"/>
<path d="M66.8091 26.2326H61.5403L62.6923 2.1192H66.8091V26.2326Z" fill="#FFF5D9"/>
<path d="M79.9983 3.69769H85.2671L84.293 26.2326H80.1762L79.9983 3.69769Z" fill="#FFF5D9"/>
<path d="M28.5804 26.7296L22.5408 25.7442L22.2612 2.11916L26.3442 0.723816L28.5804 26.7296Z" fill="#FFF5D9"/>
<path d="M40.4565 1.24707L46.4962 2.22381L47.0553 26.2587L42.9724 27.654L40.4565 1.24707Z" fill="#FFF5D9"/>
<path d="M122.369 26.2326H127.638L126.486 3.69769H122.369V26.2326Z" fill="#FFF5D9"/>
<path d="M101.294 3.02618L107.325 3.97677L108.452 25.9099L104.369 27.2617L101.294 3.02618Z" fill="#FFF5D9"/>
<path d="M0.914794 1.00292C0.97409 3.00002 0.847028 5.00583 0.948677 6.97676C0.947542 7.01413 0.953715 7.05136 0.966828 7.08624C0.979941 7.12111 0.999728 7.15291 1.02501 7.17975C1.0503 7.2066 1.08056 7.22794 1.11402 7.2425C1.14747 7.25707 1.18342 7.26457 1.21974 7.26455C3.60851 7.43025 5.99727 7.51746 8.38604 7.56106C11.9522 7.63083 15.5185 7.76164 19.0931 7.81397C23.5318 7.87792 27.9733 7.93025 32.4177 7.97095C37.5002 8.02327 42.5685 8.04943 47.6228 8.04943C53.0187 8.04943 58.4061 8.04943 63.802 8.04943C69.1979 8.04943 74.6531 8.04943 80.0829 7.99711L95.5336 7.9099L109.451 7.84885L120.904 7.72676C123.606 7.72676 126.308 7.72676 129.01 7.63083C129.468 7.63083 129.925 7.5785 130.382 7.56978C130.447 7.55805 130.506 7.5232 130.548 7.47137C130.59 7.41953 130.614 7.35402 130.614 7.28635C130.614 7.21868 130.59 7.15317 130.548 7.10134C130.506 7.0495 130.447 7.01466 130.382 7.00292C127.994 6.97676 125.596 6.97676 123.208 6.97676C119.642 6.97676 116.067 6.97676 112.492 6.97676H99.1676C94.0851 6.97676 89.0026 6.97676 83.9202 6.97676H67.7663C62.3394 6.97676 56.9124 6.97676 51.4855 6.97676C46.3352 6.97676 41.1821 6.97676 36.0262 6.97676C31.3927 6.97676 26.7507 6.97676 22.1172 6.97676C18.3053 6.97676 14.4935 6.8285 10.6732 6.90699C7.98791 6.96804 5.26878 6.81106 2.57507 6.71513L1.21974 6.72385L1.49928 6.97676C1.38069 4.97967 1.41457 2.97385 1.27904 0.976759C1.27904 0.741294 0.906323 0.732573 0.914794 0.976759V1.00292Z" fill="#343B38"/>
<path d="M0.245653 25.561C0.0831559 26.8771 0.00111005 28.2024 0 29.529C0.00217416 29.6532 0.0510648 29.7717 0.136382 29.8596C0.221698 29.9474 0.336787 29.9977 0.457423 30C2.21088 29.8256 3.9728 29.7819 5.72626 29.7296C8.48209 29.6424 11.2379 29.5756 13.9938 29.529C21.2786 29.4069 28.5635 29.3633 35.8484 29.3023L42.4302 29.2587C43.5145 29.2587 44.5903 29.2587 45.6745 29.2064C46.7242 29.2198 47.7737 29.1673 48.8172 29.0494C48.8965 29.0275 48.9665 28.9793 49.0164 28.9123C49.0664 28.8453 49.0934 28.7632 49.0934 28.6787C49.0934 28.5943 49.0664 28.5122 49.0164 28.4452C48.9665 28.3782 48.8965 28.33 48.8172 28.3081C47.8664 28.2017 46.9104 28.1522 45.9541 28.1599C45.0138 28.1599 44.082 28.1599 43.1418 28.1599H37.2715C33.4427 28.1599 29.6478 28.1599 25.802 28.2296C19.3981 28.3256 12.9857 28.3866 6.58181 28.6831C4.55729 28.779 2.54124 28.779 0.457423 29.0581L0.914846 29.529C0.914846 28.7354 0.914846 27.9331 0.864021 27.1395C0.84708 26.6337 0.753901 26.1628 0.728489 25.6221C0.728489 25.3604 0.296478 25.2645 0.245653 25.561Z" fill="#343B38"/>
</g>
<defs>
<clipPath id="clip0">
<rect width="133" height="30" fill="white"/>
</clipPath>
</defs>
</svg>

<svg xmlns="http://www.w3.org/2000/svg" width="133" height="30" fill="none" xmlns:v="https://vecta.io/nano"><g clip-path="url(#A)"><g fill="#fff5d9"><path d="M132.145 7.404L1.872 7.169c-.225 0-.44-.092-.599-.255s-.248-.385-.248-.617L1.084.872c0-.231.089-.453.248-.617S1.707 0 1.931 0l130.154 2.686c.225 0 .44.092.599.255s.248.385.248.617l.085 2.974a.9.9 0 0 1-.067.34c-.044.108-.109.205-.19.286a.84.84 0 0 1-.284.187.82.82 0 0 1-.331.059zM1.194 29.529l130.247-2.328c.225 0 .44-.092.599-.255s.248-.385.248-.617l-.144-5.398c0-.231-.089-.453-.248-.617s-.374-.255-.599-.255L1.177 24.802c-.225 0-.44.092-.599.255s-.248.385-.248.617v2.983a.89.89 0 0 0 .066.338c.044.107.108.204.188.285s.176.145.281.188a.81.81 0 0 0 .329.061z"/><path d="M10.936 26.956H5.667L6.819 2.119h4.117v24.837zm55.873-.723H61.54L62.692 2.12h4.117v24.113zM79.998 3.698h5.269l-.974 22.535h-4.117l-.178-22.535zM28.58 26.73l-6.04-.985-.28-23.625L26.344.724 28.58 26.73zM40.457 1.247l6.04.977.559 24.035-4.083 1.395-2.516-26.407zm81.912 24.986h5.269l-1.152-22.535h-4.117v22.535zM101.294 3.026l6.031.951 1.127 21.933-4.083 1.352-3.075-24.236z"/></g><g fill="#343b38"><path d="M.915 1.003l.034 5.974c-.001.037.005.075.018.109a.28.28 0 0 0 .058.094.27.27 0 0 0 .089.063c.033.015.069.022.106.022l7.166.297 10.707.253 13.325.157 15.205.078h16.179l16.281-.052 15.451-.087 13.917-.061 11.453-.122 8.106-.096 1.372-.061c.065-.012.124-.047.166-.098s.066-.117.066-.185-.024-.133-.066-.185-.101-.087-.166-.098l-7.174-.026h-10.716-13.324H83.92 67.766h-16.28-15.46-13.909c-3.812 0-7.624-.148-11.444-.07-2.685.061-5.404-.096-8.098-.192l-1.355.009.28.253c-.119-1.997-.085-4.003-.22-6 0-.235-.373-.244-.364 0v.026zM.246 25.561A32.48 32.48 0 0 0 0 29.529a.49.49 0 0 0 .136.331.46.46 0 0 0 .321.14l5.269-.27 8.268-.201 21.855-.227 6.582-.044 3.244-.052c1.05.013 2.099-.039 3.143-.157.079-.022.149-.07.199-.137a.39.39 0 0 0 0-.467c-.05-.067-.12-.115-.199-.137a24.03 24.03 0 0 0-2.863-.148h-2.812-5.87l-11.47.07-19.22.453-6.124.375.457.471-.051-2.389c-.017-.506-.11-.977-.136-1.517 0-.262-.432-.358-.483-.061z"/></g></g><defs><clipPath id="A"><path fill="#fff" d="M0 0h133v30H0z"/></clipPath></defs></svg>
